svg/icon/btcz.svg

<svg xmlns="http://www.w3.org/2000/svg" xmlns:xlink="http://www.w3.org/1999/xlink" width="32" height="32" viewBox="0 0 32 32">
  <defs>
    <linearGradient id="btcz-c" x1="50%" x2="50%" y1="0%" y2="100%">
      <stop offset="0%" stop-color="#FFF" stop-opacity=".5"/>
      <stop offset="100%" stop-opacity=".5"/>
    </linearGradient>
    <circle id="btcz-b" cx="16" cy="15" r="15"/>
    <filter id="btcz-a" width="111.7%" height="111.7%" x="-5.8%" y="-4.2%" filterUnits="objectBoundingBox">
      <feOffset dy=".5" in="SourceAlpha" result="shadowOffsetOuter1"/>
      <feGaussianBlur in="shadowOffsetOuter1" result="shadowBlurOuter1" stdDeviation=".5"/>
      <feComposite in="shadowBlurOuter1" in2="SourceAlpha" operator="out" result="shadowBlurOuter1"/>
      <feColorMatrix in="shadowBlurOuter1" values="0 0 0 0 0   0 0 0 0 0   0 0 0 0 0  0 0 0 0.199473505 0"/>
    </filter>
    <path id="btcz-e" d="M15.9999993,25.9999975 C9.9343622,25.9999975 5,21.0656356 5,14.9999988 C5,8.93436195 9.9374164,4 15.9999993,4 C22.0625822,4 26.9999986,8.93741615 26.9999986,14.9999988 C27.0004959,16.0023581 26.864244,17.0000998 26.595012,17.9656248 C26.4631053,18.4379251 25.9732986,18.7138687 25.5009983,18.5819619 C25.0286979,18.4500552 24.7527544,17.9602486 24.8846611,17.4879483 C25.1102702,16.6779052 25.2243269,15.8408726 25.2236771,14.9999988 C25.2236771,9.91353776 21.0858497,5.77632143 15.9999993,5.77632143 C10.9141489,5.77632143 6.77632153,9.9141486 6.77632153,14.9999988 C6.77632153,20.0858489 10.9141489,24.2236761 15.9999993,24.2236761 C16.9522087,24.2246244 17.8988229,24.0781197 18.8061964,23.7893692 C19.1084477,23.693238 19.4390247,23.7656582 19.6734024,23.9793499 C19.9077801,24.1930416 20.0103508,24.5155398 19.9424773,24.8253627 C19.8746037,25.1351856 19.6465973,25.3852636 19.3443461,25.4813947 C18.2630081,25.8258206 17.1348651,26.00076 15.9999993,25.9999975 Z M19.3748881,14.9743435 C19.7548303,15.2919801 20.0109757,15.751535 20.1433243,16.3530084 C20.2287158,16.6991757 20.2230339,17.061554 20.1268316,17.4048741 C20.0313298,17.7229334 19.8622434,18.0140214 19.6332732,18.2545519 C19.3828165,18.5155175 19.0891655,18.731261 18.7652701,18.8922684 C18.4225891,19.0688011 18.3419583,19.1256091 17.9339175,19.2160134 L17.680419,19.2770973 C17.5235593,19.3148908 17.4259694,19.4714696 17.4611276,19.6289409 L17.6101725,20.3008644 C17.62727,20.3774995 17.61318,20.4577882 17.5710102,20.5240224 C17.5288403,20.5902566 17.4620548,20.6369952 17.3853835,20.6539297 L16.7079624,20.8035854 C16.6313273,20.8206829 16.5510386,20.8065929 16.4848044,20.7644231 C16.4185703,20.7222532 16.3718317,20.6554677 16.3548971,20.5787964 L16.2070739,19.9117596 C16.1901394,19.8350884 16.1434008,19.7683029 16.0771666,19.726133 C16.0109324,19.6839632 15.9306438,19.6698732 15.8540087,19.6869707 L14.0214899,20.093179 C13.8344525,20.1344461 13.6386822,20.099704 13.4772655,19.996599 C13.3158489,19.893494 13.2020149,19.7304761 13.1608169,19.5434234 L11.51155,12.0844615 C11.4702829,11.8974241 11.505025,11.7016538 11.60813,11.5402372 C11.711235,11.3788206 11.874253,11.2649866 12.0613057,11.2237886 L13.8938244,10.8175803 C13.9704957,10.8006457 14.0372812,10.7539072 14.0794511,10.687673 C14.1216209,10.6214388 14.1357109,10.5411501 14.1186134,10.464515 L13.9689577,9.79259153 C13.9345929,9.63302981 14.0360355,9.47580738 14.1955792,9.44135878 L14.8730003,9.29170309 C14.9496354,9.27460558 15.0299241,9.28869556 15.0961582,9.33086542 C15.1623924,9.37303527 15.209131,9.43982078 15.2260656,9.51649205 L15.3738887,10.1835288 C15.3908233,10.2602001 15.4375619,10.3269856 15.5037961,10.3691555 C15.5700302,10.4113253 15.6503189,10.4254153 15.726954,10.4083178 L16.2870939,10.2861499 C16.577362,10.217778 16.8800926,10.2228166 17.1679246,10.30081 C17.4411032,10.3755928 17.6966998,10.5039102 17.9198682,10.6783089 C18.1443841,10.8550105 18.336056,11.0698401 18.4861164,11.3129712 C18.6400984,11.5586359 18.7508381,11.8288738 18.8135265,12.1119493 C18.9076674,12.5323757 18.8893374,12.970188 18.7603834,13.3812739 C18.6266194,13.8088651 18.3570466,14.1811629 17.9925581,14.4416914 C18.4986845,14.4656902 18.9835248,14.6525133 19.3748881,14.9743435 Z M13.9445241,13.3769981 L14.0428693,13.8027532 C14.0840672,13.9898059 14.1979012,14.1528238 14.3593179,14.2559288 C14.5207345,14.3590338 14.7165048,14.3937759 14.9035423,14.3525088 L16.2095173,14.0635817 C16.4305742,14.0163592 16.6263734,13.8890897 16.7592729,13.7062406 C16.9009877,13.5176948 16.9368236,13.2652144 16.8667807,12.9487995 C16.8020317,12.6572254 16.6751807,12.4493364 16.4862276,12.3251323 C16.3078679,12.2025367 16.0859967,12.1610468 15.875388,12.2109053 L14.4942797,12.5163251 C14.3072271,12.5575231 14.1442091,12.6713571 14.0411041,12.8327737 C13.9379991,12.9941903 13.903257,13.1899606 13.9445241,13.3769981 Z M17.8538975,17.1440456 L17.8563408,17.1440456 C17.9935813,16.9211805 18.0329123,16.6516083 17.9650703,16.3988213 C17.9158886,16.1432464 17.7767617,15.913752 17.5729113,15.7519423 C17.3885014,15.5987601 17.1428548,15.5410806 16.9095395,15.5961782 L15.2535533,15.9626819 C15.0665007,16.0038799 14.9034827,16.1177139 14.8003777,16.2791305 C14.6972727,16.4405471 14.6625306,16.6363174 14.7037977,16.8233548 L14.8204681,17.3498985 C14.861666,17.5369512 14.9755,17.6999691 15.1369167,17.8030741 C15.2983333,17.9061792 15.4941036,17.9409213 15.6811411,17.8996541 L17.2497771,17.5526973 C17.4990251,17.5059508 17.7177523,17.3579948 17.8538975,17.1440456 Z M21.1518204,22.5273746 L22.6850278,20.694856 C22.753612,20.6122465 22.7683485,20.4974705 22.7228578,20.4002145 C22.6773671,20.3029585 22.5798243,20.2407003 22.4724556,20.2403913 L21.4395259,20.2403913 C21.2863656,20.2403913 21.1622047,20.1162304 21.1622047,19.9630702 L21.1622047,19.7474438 C21.1622047,19.5942836 21.2863656,19.4701226 21.4395259,19.4701226 L23.7979775,19.4701226 C23.8715277,19.4701226 23.9420654,19.4993403 23.9940732,19.5513481 C24.046081,19.6033559 24.0752987,19.6738937 24.0752987,19.7474438 L24.0752987,20.0308734 C24.0749867,20.093545 24.0534554,20.154263 24.0142147,20.2031301 L22.5481997,22.0454222 C22.4821788,22.1287201 22.4695752,22.2424247 22.5157514,22.3381591 C22.5619277,22.4338934 22.6587591,22.4948135 22.7650478,22.4950001 L23.8163027,22.4950001 C23.969463,22.4950001 24.0936239,22.619161 24.0936239,22.7723213 L24.0936239,22.986726 C24.0936239,23.0602761 24.0644062,23.1308138 24.0123984,23.1828217 C23.9603906,23.2348295 23.8898529,23.2640471 23.8163027,23.2640471 L21.3643926,23.2640471 C21.2112323,23.2640471 21.0870714,23.1398862 21.0870714,22.986726 L21.0870714,22.7069615 C21.0867209,22.6413228 21.1096642,22.5776877 21.1518204,22.5273746 Z"/>
    <filter id="btcz-d" width="115.9%" height="115.9%" x="-8%" y="-5.7%" filterUnits="objectBoundingBox">
      <feOffset dy=".5" in="SourceAlpha" result="shadowOffsetOuter1"/>
      <feGaussianBlur in="shadowOffsetOuter1" result="shadowBlurOuter1" stdDeviation=".5"/>
      <feColorMatrix in="shadowBlurOuter1" values="0 0 0 0 0   0 0 0 0 0   0 0 0 0 0  0 0 0 0.204257246 0"/>
    </filter>
  </defs>
  <g fill="none" fill-rule="evenodd">
    <g fill-rule="nonzero">
      <use fill="#000" filter="url(#btcz-a)" xlink:href="#btcz-b"/>
      <use fill="#F8C24A" fill-rule="evenodd" xlink:href="#btcz-b"/>
      <use fill="url(#btcz-c)" fill-rule="evenodd" style="mix-blend-mode:soft-light" xlink:href="#btcz-b"/>
      <circle cx="16" cy="15" r="14.5" stroke="#000" stroke-opacity=".097"/>
    </g>
    <g fill-rule="nonzero">
      <use fill="#000" filter="url(#btcz-d)" xlink:href="#btcz-e"/>
      <use fill="#FFF" fill-rule="evenodd" xlink:href="#btcz-e"/>
    </g>
  </g>
</svg>

<svg xmlns="http://www.w3.org/2000/svg" xmlns:xlink="http://www.w3.org/1999/xlink" width="32" height="32"><defs><linearGradient id="c" x1="50%" x2="50%" y1="0%" y2="100%"><stop offset="0%" stop-color="#FFF" stop-opacity=".5"/><stop offset="100%" stop-opacity=".5"/></linearGradient><circle id="b" cx="16" cy="15" r="15"/><filter id="a" width="111.7%" height="111.7%" x="-5.8%" y="-4.2%" filterUnits="objectBoundingBox"><feOffset dy=".5" in="SourceAlpha" result="shadowOffsetOuter1"/><feGaussianBlur in="shadowOffsetOuter1" result="shadowBlurOuter1" stdDeviation=".5"/><feComposite in="shadowBlurOuter1" in2="SourceAlpha" operator="out" result="shadowBlurOuter1"/><feColorMatrix in="shadowBlurOuter1" values="0 0 0 0 0 0 0 0 0 0 0 0 0 0 0 0 0 0 0.199473505 0"/></filter><path id="e" d="M16 26C9.934 26 5 21.066 5 15S9.937 4 16 4s11 4.937 11 11c0 1.002-.136 2-.405 2.966a.888.888 0 0 1-1.71-.478c.225-.81.34-1.647.339-2.488 0-5.086-4.138-9.224-9.224-9.224S6.776 9.914 6.776 15s4.138 9.224 9.224 9.224c.952 0 1.899-.146 2.806-.435a.888.888 0 1 1 .538 1.692c-1.081.345-2.21.52-3.344.519zm3.375-11.026c.38.318.636.778.768 1.379.086.346.08.709-.016 1.052-.096.318-.265.609-.494.85a3.14 3.14 0 0 1-.868.637c-.342.177-.423.234-.831.324l-.254.061a.296.296 0 0 0-.219.352l.15.672a.296.296 0 0 1-.226.353l-.677.15a.296.296 0 0 1-.353-.225l-.148-.667a.296.296 0 0 0-.353-.225l-1.833.406a.722.722 0 0 1-.86-.55l-1.65-7.459a.722.722 0 0 1 .55-.86l1.833-.406a.296.296 0 0 0 .225-.353l-.15-.672a.296.296 0 0 1 .227-.352l.677-.15a.296.296 0 0 1 .353.225l.148.668a.296.296 0 0 0 .353.224l.56-.122c.29-.068.593-.063.88.015.274.075.53.203.753.377a2.537 2.537 0 0 1 .894 1.434c.094.42.075.858-.054 1.27a2.06 2.06 0 0 1-.767 1.06c.506.024.99.21 1.382.532zm-5.43-1.597l.098.426a.722.722 0 0 0 .86.55l1.307-.29a.916.916 0 0 0 .55-.357c.141-.188.177-.44.107-.757-.065-.292-.192-.5-.38-.624a.767.767 0 0 0-.612-.114l-1.38.305a.722.722 0 0 0-.55.861zm3.909 3.767h.002a.951.951 0 0 0 .11-.745 1.089 1.089 0 0 0-.393-.647.764.764 0 0 0-.663-.156l-1.656.367a.722.722 0 0 0-.55.86l.116.527a.722.722 0 0 0 .861.55l1.569-.347a.916.916 0 0 0 .604-.409zm3.298 5.383l1.533-1.832a.277.277 0 0 0-.213-.455H21.44a.277.277 0 0 1-.278-.277v-.216c0-.153.124-.277.278-.277h2.358a.277.277 0 0 1 .277.277v.284a.277.277 0 0 1-.06.172l-1.467 1.842a.277.277 0 0 0 .217.45h1.051c.153 0 .278.124.278.277v.215a.277.277 0 0 1-.278.277h-2.452a.277.277 0 0 1-.277-.277v-.28c0-.066.023-.13.065-.18z"/><filter id="d" width="115.9%" height="115.9%" x="-8%" y="-5.7%" filterUnits="objectBoundingBox"><feOffset dy=".5" in="SourceAlpha" result="shadowOffsetOuter1"/><feGaussianBlur in="shadowOffsetOuter1" result="shadowBlurOuter1" stdDeviation=".5"/><feColorMatrix in="shadowBlurOuter1" values="0 0 0 0 0 0 0 0 0 0 0 0 0 0 0 0 0 0 0.204257246 0"/></filter></defs><g fill="none"><use fill="#000" filter="url(#a)" xlink:href="#b"/><use fill="#F8C24A" fill-rule="evenodd" xlink:href="#b"/><use fill="url(#c)" fill-rule="evenodd" style="mix-blend-mode:soft-light" xlink:href="#b"/><circle cx="16" cy="15" r="14.5" stroke="#000" stroke-opacity=".097"/><use fill="#000" filter="url(#d)" xlink:href="#e"/><use fill="#FFF" fill-rule="evenodd" xlink:href="#e"/></g></svg>
